build/img/icons/icon-projects.svg

<svg width="153" height="47" viewBox="0 0 153 47" fill="none" xmlns="http://www.w3.org/2000/svg">
<path d="M22.088 29.04C20.5947 29.04 19.272 28.7413 18.12 28.144C16.968 27.504 15.688 26.608 14.28 25.456C13.2133 24.56 12.3173 23.8987 11.592 23.472C10.9093 23.0453 10.1627 22.832 9.352 22.832C7.98667 22.832 6.89867 23.3653 6.088 24.432C5.27733 25.456 4.82933 26.8427 4.744 28.592H0.712C0.797333 25.136 1.58667 22.5333 3.08 20.784C4.616 18.992 6.64267 18.096 9.16 18.096C10.696 18.096 12.0187 18.416 13.128 19.056C14.28 19.6533 15.56 20.5493 16.968 21.744C18.0773 22.64 18.9733 23.3013 19.656 23.728C20.3387 24.112 21.0853 24.304 21.896 24.304C23.304 24.304 24.392 23.792 25.16 22.768C25.9707 21.7013 26.4187 20.272 26.504 18.48H30.536C30.4507 21.9787 29.64 24.624 28.104 26.416C26.6107 28.1653 24.6053 29.04 22.088 29.04ZM67.9975 40.432V46H35.8055V41.648L54.0455 24.048C56.2642 21.9147 57.7575 20.08 58.5255 18.544C59.2935 16.9653 59.6775 15.3867 59.6775 13.808C59.6775 11.4613 58.8455 9.648 57.1815 8.368C55.5602 7.04533 53.2135 6.384 50.1415 6.384C45.1922 6.384 41.3735 8.00533 38.6855 11.248L34.3335 7.472C36.0828 5.33867 38.3655 3.67467 41.1815 2.48C44.0402 1.28533 47.2188 0.688 50.7175 0.688C55.4108 0.688 59.1442 1.81867 61.9175 4.08C64.6908 6.29866 66.0775 9.328 66.0775 13.168C66.0775 15.5573 65.5655 17.8187 64.5415 19.952C63.5175 22.0853 61.5762 24.5173 58.7175 27.248L45.0215 40.432H67.9975ZM91.376 46.512C87.8347 46.512 84.6773 45.616 81.904 43.824C79.1733 41.9893 77.0187 39.344 75.44 35.888C73.8613 32.432 73.072 28.336 73.072 23.6C73.072 18.864 73.8613 14.768 75.44 11.312C77.0187 7.856 79.1733 5.232 81.904 3.44C84.6773 1.60533 87.8347 0.688 91.376 0.688C94.8747 0.688 97.9893 1.60533 100.72 3.44C103.493 5.232 105.669 7.856 107.248 11.312C108.827 14.768 109.616 18.864 109.616 23.6C109.616 28.336 108.827 32.432 107.248 35.888C105.669 39.344 103.493 41.9893 100.72 43.824C97.9893 45.616 94.8747 46.512 91.376 46.512ZM91.376 40.816C94.96 40.816 97.8187 39.344 99.952 36.4C102.128 33.456 103.216 29.1893 103.216 23.6C103.216 18.0107 102.128 13.744 99.952 10.8C97.8187 7.856 94.96 6.384 91.376 6.384C87.7493 6.384 84.848 7.856 82.672 10.8C80.5387 13.744 79.472 18.0107 79.472 23.6C79.472 29.1893 80.5387 33.456 82.672 36.4C84.848 39.344 87.7493 40.816 91.376 40.816ZM134.064 46.512C130.522 46.512 127.365 45.616 124.592 43.824C121.861 41.9893 119.706 39.344 118.128 35.888C116.549 32.432 115.76 28.336 115.76 23.6C115.76 18.864 116.549 14.768 118.128 11.312C119.706 7.856 121.861 5.232 124.592 3.44C127.365 1.60533 130.522 0.688 134.064 0.688C137.562 0.688 140.677 1.60533 143.408 3.44C146.181 5.232 148.357 7.856 149.936 11.312C151.514 14.768 152.304 18.864 152.304 23.6C152.304 28.336 151.514 32.432 149.936 35.888C148.357 39.344 146.181 41.9893 143.408 43.824C140.677 45.616 137.562 46.512 134.064 46.512ZM134.064 40.816C137.648 40.816 140.506 39.344 142.64 36.4C144.816 33.456 145.904 29.1893 145.904 23.6C145.904 18.0107 144.816 13.744 142.64 10.8C140.506 7.856 137.648 6.384 134.064 6.384C130.437 6.384 127.536 7.856 125.36 10.8C123.226 13.744 122.16 18.0107 122.16 23.6C122.16 29.1893 123.226 33.456 125.36 36.4C127.536 39.344 130.437 40.816 134.064 40.816Z" fill="#D9C09A"/>
</svg>

<svg width="153" height="47" fill="none" xmlns="http://www.w3.org/2000/svg"><path d="M22.088 29.04c-1.493 0-2.816-.299-3.968-.896-1.152-.64-2.432-1.536-3.84-2.688-1.067-.896-1.963-1.557-2.688-1.984a4.145 4.145 0 00-2.24-.64c-1.365 0-2.453.533-3.264 1.6-.81 1.024-1.259 2.41-1.344 4.16H.712c.085-3.456.875-6.059 2.368-7.808 1.536-1.792 3.563-2.688 6.08-2.688 1.536 0 2.859.32 3.968.96 1.152.597 2.432 1.493 3.84 2.688 1.11.896 2.005 1.557 2.688 1.984.683.384 1.43.576 2.24.576 1.408 0 2.496-.512 3.264-1.536.81-1.067 1.259-2.496 1.344-4.288h4.032c-.085 3.499-.896 6.144-2.432 7.936-1.493 1.75-3.499 2.624-6.016 2.624zm45.91 11.392V46H35.805v-4.352l18.24-17.6c2.22-2.133 3.712-3.968 4.48-5.504.769-1.579 1.153-3.157 1.153-4.736 0-2.347-.832-4.16-2.496-5.44-1.622-1.323-3.968-1.984-7.04-1.984-4.95 0-8.769 1.621-11.457 4.864l-4.352-3.776c1.75-2.133 4.032-3.797 6.849-4.992C44.04 1.285 47.218.688 50.716.688c4.694 0 8.427 1.13 11.2 3.392 2.774 2.219 4.16 5.248 4.16 9.088 0 2.39-.511 4.65-1.535 6.784-1.025 2.133-2.966 4.565-5.825 7.296L45.023 40.432h22.976zm23.378 6.08c-3.541 0-6.699-.896-9.472-2.688-2.73-1.835-4.885-4.48-6.464-7.936-1.579-3.456-2.368-7.552-2.368-12.288 0-4.736.79-8.832 2.368-12.288 1.579-3.456 3.733-6.08 6.464-7.872 2.773-1.835 5.93-2.752 9.472-2.752 3.499 0 6.613.917 9.344 2.752 2.773 1.792 4.949 4.416 6.528 7.872 1.579 3.456 2.368 7.552 2.368 12.288 0 4.736-.789 8.832-2.368 12.288-1.579 3.456-3.755 6.101-6.528 7.936-2.73 1.792-5.845 2.688-9.344 2.688zm0-5.696c3.584 0 6.443-1.472 8.576-4.416 2.176-2.944 3.264-7.21 3.264-12.8 0-5.59-1.088-9.856-3.264-12.8-2.133-2.944-4.992-4.416-8.576-4.416-3.627 0-6.528 1.472-8.704 4.416-2.133 2.944-3.2 7.21-3.2 12.8 0 5.59 1.067 9.856 3.2 12.8 2.176 2.944 5.077 4.416 8.704 4.416zm42.688 5.696c-3.542 0-6.699-.896-9.472-2.688-2.731-1.835-4.886-4.48-6.464-7.936-1.579-3.456-2.368-7.552-2.368-12.288 0-4.736.789-8.832 2.368-12.288 1.578-3.456 3.733-6.08 6.464-7.872 2.773-1.835 5.93-2.752 9.472-2.752 3.498 0 6.613.917 9.344 2.752 2.773 1.792 4.949 4.416 6.528 7.872 1.578 3.456 2.368 7.552 2.368 12.288 0 4.736-.79 8.832-2.368 12.288-1.579 3.456-3.755 6.101-6.528 7.936-2.731 1.792-5.846 2.688-9.344 2.688zm0-5.696c3.584 0 6.442-1.472 8.576-4.416 2.176-2.944 3.264-7.21 3.264-12.8 0-5.59-1.088-9.856-3.264-12.8-2.134-2.944-4.992-4.416-8.576-4.416-3.627 0-6.528 1.472-8.704 4.416-2.134 2.944-3.2 7.21-3.2 12.8 0 5.59 1.066 9.856 3.2 12.8 2.176 2.944 5.077 4.416 8.704 4.416z" fill="#D9C09A"/></svg>
